X:29
T:Rumanian tune
C:from Ruthie Dornfeld
M:4/4
K:Am ^c _b
|: g4 g4 | f4 f4 | cd e3 d cd | e3 dcB A2 | \
g4 g4 | f4 f4 | G^FGA BcdB | cdBc A4 :| \
z dcd
|: e2 e2 e2 e2 | (e2 e3) dcd | f2 f2 f2 f2 | \
(f2 f3) dcd | e2 e2 e2 e2 | e4 G^FGA | BcdB cdBc | A4 z4 :|
